mimetypes/symbolic/x-office-spreadsheet-symbolic.svg

<svg enable-background="new" height="16" width="16" xmlns="http://www.w3.org/2000/svg"><path d="m3.3339844 2c-.7399999 0-1.3339844.5939844-1.3339844 1.3339844v9.3320316c.0000002.736379.597605 1.333984 1.3339844 1.333984h9.3320316c.73638 0 1.333984-.597604 1.333984-1.333984v-9.3320316c0-.74-.60065-1.3339844-1.333984-1.3339844zm6.359375 3.2089844h1.1347656c.122206-.0000486.222545.098497.222656.2207031l.003907 5.1386715c.000111.122206-.098501.220654-.220704.220703l-1.1347652.001954c-.1222064.000048-.2225459-.098501-.2226563-.220704l-.0039063-5.1406245c-.0001105-.1222053.0984963-.2206545.2207032-.2207031zm-2.3066406 1.4375h1.1367187c.122206-.000036.2205541.0985001.2207031.2207031l.0039063 3.6914065c.000149.122206-.09654.220667-.21875.220703h-1.1367188c-.122207.000036-.2205541-.0985-.2207031-.220703l-.0039062-3.6914065c-.0001491-.122206.09654-.2206671.21875-.2207031zm-2.2207032 1.4589844h1.1347656c.1222061-.0000231.2224263.0984991.2226563.2207031l.0039063 2.2421871c.00023.122206-.0985002.220681-.2207032.220703h-1.1367187c-.122206.000022-.2204731-.0985-.2207031-.220703l-.0039063-2.2421871c-.00023-.122207.0985001-.2206792.2207031-.2207031z" fill="#bebebe" stroke-width=".666667"/></svg>

<?xml version="1.0" encoding="UTF-8" standalone="no"?>
<!-- Created with Inkscape (http://www.inkscape.org/) -->

<svg
   xmlns:osb="http://www.openswatchbook.org/uri/2009/osb"
   xmlns:dc="http://purl.org/dc/elements/1.1/"
   xmlns:cc="http://creativecommons.org/ns#"
   xmlns:rdf="http://www.w3.org/1999/02/22-rdf-syntax-ns#"
   xmlns:svg="http://www.w3.org/2000/svg"
   xmlns="http://www.w3.org/2000/svg"
   xmlns:sodipodi="http://sodipodi.sourceforge.net/DTD/sodipodi-0.dtd"
   xmlns:inkscape="http://www.inkscape.org/namespaces/inkscape"
   sodipodi:docname="x-office-spreadsheet-symbolic.svg"
   inkscape:export-filename="/home/sam/source-symbolic.png"
   inkscape:export-xdpi="270"
   inkscape:export-ydpi="270"
   height="16"
   id="svg7384"
   style="enable-background:new"
   version="1.1"
   inkscape:version="0.92+devel unknown"
   width="16">
  <sodipodi:namedview
     inkscape:bbox-nodes="true"
     inkscape:bbox-paths="false"
     bordercolor="#666666"
     borderlayer="false"
     borderopacity="1"
     inkscape:current-layer="svg7384"
     inkscape:cx="-4.1438084"
     inkscape:cy="9.5812392"
     gridtolerance="10"
     inkscape:guide-bbox="true"
     guidetolerance="10"
     id="namedview88"
     inkscape:object-nodes="true"
     inkscape:object-paths="true"
     objecttolerance="10"
     pagecolor="#f7f7f7"
     inkscape:pageopacity="1"
     inkscape:pageshadow="2"
     showborder="true"
     showgrid="false"
     showguides="true"
     inkscape:showpageshadow="false"
     inkscape:snap-bbox="true"
     inkscape:snap-bbox-edge-midpoints="false"
     inkscape:snap-bbox-midpoints="true"
     inkscape:snap-center="false"
     inkscape:snap-global="true"
     inkscape:snap-grids="true"
     inkscape:snap-intersection-paths="true"
     inkscape:snap-midpoints="true"
     inkscape:snap-nodes="true"
     inkscape:snap-object-midpoints="true"
     inkscape:snap-others="true"
     inkscape:snap-page="false"
     inkscape:snap-smooth-nodes="true"
     inkscape:snap-to-guides="true"
     inkscape:window-height="642"
     inkscape:window-maximized="1"
     inkscape:window-width="1366"
     inkscape:window-x="0"
     inkscape:window-y="33"
     inkscape:zoom="31.999999"
     inkscape:document-rotation="0">
    <inkscape:grid
       color="#000000"
       dotted="false"
       empcolor="#0800ff"
       empopacity="0.4627451"
       empspacing="4"
       enabled="true"
       id="grid4866"
       opacity="0.16470588"
       originx="-463.99998"
       originy="-548.00336"
       snapvisiblegridlinesonly="true"
       spacingx="0.25"
       spacingy="0.25"
       type="xygrid"
       visible="true" />
  </sodipodi:namedview>
  <metadata
     id="metadata90">
    <rdf:RDF>
      <cc:Work
         rdf:about="">
        <dc:format>image/svg+xml</dc:format>
        <dc:type
           rdf:resource="http://purl.org/dc/dcmitype/StillImage" />
        <dc:title>Paper Symbolic Icon Theme</dc:title>
      </cc:Work>
    </rdf:RDF>
  </metadata>
  <title
     id="title8473">Paper Symbolic Icon Theme</title>
  <defs
     id="defs7386">
    <linearGradient
       id="linearGradient5606"
       osb:paint="solid">
      <stop
         id="stop5608"
         offset="0"
         style="stop-color:#000000;stop-opacity:1;" />
    </linearGradient>
    <linearGradient
       id="linearGradient4207"
       osb:paint="gradient">
      <stop
         style="stop-color:#3498db;stop-opacity:1;"
         offset="0"
         id="stop3371" />
      <stop
         style="stop-color:#3498db;stop-opacity:0;"
         offset="1"
         id="stop3373" />
    </linearGradient>
  </defs>
  <path
     style="fill:#bebebe;fill-opacity:1;stroke-width:0.66666663"
     d="M 3.3339844 2 C 2.5939845 2 2 2.5939844 2 3.3339844 L 2 12.666016 C 2.0000002 13.402395 2.597605 14 3.3339844 14 L 12.666016 14 C 13.402396 14 14 13.402396 14 12.666016 L 14 3.3339844 C 14 2.5939844 13.39935 2 12.666016 2 L 3.3339844 2 z M 9.6933594 5.2089844 L 10.828125 5.2089844 C 10.950331 5.2089358 11.05067 5.3074814 11.050781 5.4296875 L 11.054688 10.568359 C 11.054799 10.690565 10.956187 10.789013 10.833984 10.789062 L 9.6992188 10.791016 C 9.5770124 10.791064 9.4766729 10.692515 9.4765625 10.570312 L 9.4726562 5.4296875 C 9.4725457 5.3074822 9.5711525 5.209033 9.6933594 5.2089844 z M 7.3867188 6.6464844 L 8.5234375 6.6464844 C 8.6456435 6.6464484 8.7439916 6.7449845 8.7441406 6.8671875 L 8.7480469 10.558594 C 8.7481959 10.6808 8.6515069 10.779261 8.5292969 10.779297 L 7.3925781 10.779297 C 7.2703711 10.779333 7.172024 10.680797 7.171875 10.558594 L 7.1679688 6.8671875 C 7.1678197 6.7449815 7.2645088 6.6465204 7.3867188 6.6464844 z M 5.1660156 8.1054688 L 6.3007812 8.1054688 C 6.4229873 8.1054457 6.5232075 8.2039679 6.5234375 8.3261719 L 6.5273438 10.568359 C 6.5275738 10.690565 6.4288436 10.78904 6.3066406 10.789062 L 5.1699219 10.789062 C 5.0477159 10.789084 4.9494488 10.690562 4.9492188 10.568359 L 4.9453125 8.3261719 C 4.9450825 8.2039649 5.0438126 8.1054927 5.1660156 8.1054688 z "
     id="path4271" />
</svg>
